X:1
T:Title
%%score { ( 1 3 ) | 2 }
L:1/8
M:6/8
K:A
V:1 treble nm="Grand Piano"
V:3 treble 
V:2 bass 
V:1
 z3 z2[Q:1/4=78] [CE] | [CE][Cc][CA] [CE][CE][C^E] | GF^E F2 F | AGG GFE | %4
 [CF][CE][=C^D] [^CE]2 [CE] | [CE][Cc][CA] [CE][CE][C^E] | [DF][Dd][Dc] [DB][DF][DA]/[DA]/ | %7
 GGG GFG |[M:5/8] [CA]-[CA]- [CA]3 |[M:1/8] [CE] |[M:3/4] CC Cc- [Ec][Ec] | B3 .F3 | G>G GG FE | %13
[M:5/8] [CF]>[CF][CF] [CF][CE] |[M:1/8] [A,C] |[M:3/4] CC Cc- [Ec][Ec] | %16
[M:7/8] [DB]2 [Fc] [Dd]3 [DF] |[M:3/4] G>G GG FG |[M:5/8] [CA]-[CA]- [CA]3 |] %19
V:2
 z3 z2 [A,,A,] | [A,,A,][A,,A,][A,,A,] [A,,A,][A,,A,][A,,A,] | %2
 [D,A,D][D,A,D][D,G,D] [D,A,D]2 [D,D] | [E,B,D][E,B,D][E,B,D] [E,B,D][E,A,D][E,G,D] | %4
 [A,,A,][A,,A,][A,,F,] [A,,E,]2 [A,,A,] | [A,,A,][A,,A,][A,,A,] [A,,A,][A,,A,][A,,A,] | %6
 [B,,F,][B,,F,][B,,F,] [B,,F,][B,,B,][B,,B,]/[B,,B,]/ | %7
 [E,B,D][E,B,D][E,B,D] [E,B,D][E,B,D][E,B,D] |[M:5/8] [A,,A,]-[A,,A,]- [A,,A,]3 |[M:1/8] [A,,A,] | %10
[M:3/4] [A,,A,][A,,A,] [A,,A,][A,,A,] [A,,A,][A,,A,] | [D,F,D][D,F,] [D,F,][D,B,D] [D,B,][D,B,D] | %12
 [E,B,D]>[E,B,D] [E,B,D][E,B,D] [E,A,D][E,G,D] |[M:5/8] [A,,A,]>[A,,A,][A,,A,] [A,,A,][A,,A,] | %14
[M:1/8] [A,,E,] |[M:3/4] [A,,A,][A,,A,] [A,,A,][A,,A,] [A,,A,][A,,A,] | %16
[M:7/8] [D,F,]2 [C,^A,] [B,,B,]3 [B,,B,] |[M:3/4] [E,B,D]>[E,B,D] [E,B,D][E,B,D] [E,B,D][E,B,D] | %18
[M:5/8] [A,,A,]-[A,,A,]- [A,,A,]3 |] %19
V:3
 x6 | x6 | x6 | x6 | x6 | x6 | x6 | x6 |[M:5/8] x5 |[M:1/8] x |[M:3/4] E3 E z2 | z D .D2 DA | x6 | %13
[M:5/8] x5 |[M:1/8] x |[M:3/4] E3 E z2 |[M:7/8] x7 |[M:3/4] x6 |[M:5/8] x5 |] %19

